!! 00000] TT[00
!! NN
!!!OTL: Yi gan hongqi kongzhong piao
!!!ARE: Asia, China, Shanxi Shanbei
!! Ethnic Group: Han
!! I, 43, 2)
!!!SCT: C0007
!!!YEM: Copyright 1995, estate of Helmut Schaffrath.
**kern
*ICvox
*Ivox
*M2/4
*k[]
*C:
{8cc
4.dd
=1
8gg
8dd
16ee
16dd
8cc
=2
8a
8cc
8a
8g
=3
2d}
=4
{8cc
4cc
8dd
=5
8ee
16dd
16cc
8a
8g
=6
8cc
8a
8a
8g
=7
2d}
==
!!!AGN: Shange, Xintianyou. Geming lishi minge
!! Eine Verzierung.
!!!ONB: ESAC (Essen Associative Code) Database: CHINA
!!!AMT: simple duple
!!!AIN: vox
!!!EED: Helmut Schaffrath
!!!EEV: 1.0
*-
